X:1
T:I Think Of You
T:                      I Think Of You                   
C:Don Marcotte
Z:All Rights Reserved
L:1/4
M:2/2
K:C
V:1 treble nm="Voice"
%%MIDI program 52
V:1
"C" E G B d |"E7" e"E7b9" f2"E7" e |"C" d c B"F#dim" c |"C6" A"Gbdim" B"Fm7b5" _A"Bb7" _B | %4
w: In the hush of|eve- 'ning, as|shad- ows steal a-|cross my lone- ly|
"C""Fmaj9" G4- |"C" G/ z/ E"C#dim" F E |"Dm7" G4- | G/"G7" z/ D F E |"C" G4- | %9
w: room,|* I think of|you,|* I think of|you.|
"Dm7" G z"G7""G+" z2 |"C" E G B d |"E7" e"E7b9" f2"E7" e |"C" d c B"F#dim" c | %13
w: |From a- far the|mus- ic of|vi- o- lins comes|
"C6" A"Gbdim" B"Fm7b5" _A"Bb7" _B |"C""Fmaj7" G4- |"C" G/ z/ E"C#dim" F E |"Dm7" G4- | %17
w: soft- ly through the|gloom,|* All I can|do|
"G7" G/ z/ D F E |"C""B6" C4- |"C" C z z C |"Fm7" G F"Bbm" _A G |"Fm7" _B _A"G7" G"G7b9" A | %22
w: * is think of|you.|* Oh!|I can see you|stand- ing there be-|
"Fm" F2"Bbm" F2- |"Fm" F2 z F |"C" G E F G |"Ab7" _B _A _E F |"Dm7" G2 G2- |"G7" G2"G+" z2 | %28
w: fore me,|* And|I can hear you|whis- per you a-|dore me.||
"C" E G B d |"E7" e"E7b9" f2"E7" e |"C" d c B"F#dim" c |"C6" A"Gbdim" B"Fm7b5" _A"Bb7" _B | %32
w: So when dusk is|fall- ing, I|live a- gain the|love- li- ness we|
"C""Fmaj7" G4- |"C" G/ z/ E"C#dim" F E |"Dm7" G4- |"G7" G"^N.C." A B G |"Ab" c4- |"C" c4 |] %38
w: knew|* I think of|you,|* I think of|you.||

